app/dist/common/images/brain-biotech-ag.svg

<svg height="18" viewBox="0 0 18 18" width="18" xmlns="http://www.w3.org/2000/svg"><path d="m0 0h18v18h-18z" fill="#f0f3fa"/><path d="m8.3 13h-3.3v-8h3.53c1.36.02 2.04.85 2.04 2.07 0 .68-.21 1.12-.86 1.49.82.32 1.29 1.26 1.29 2.02 0 1.52-1.1 2.42-2.7 2.42zm-.21-4h-1.59v3h1.56c.79 0 1.44-.53 1.44-1.42 0-1.04-.72-1.57-1.41-1.58zm.91-1.93c0-.71-.7-1.07-1.37-1.07h-1.13v2h1.32c.63 0 1.18-.32 1.18-.93z"/><circle cx="13" cy="9" fill="#c82038" r="1"/></svg>

<!-- by TradingView --><svg width="18" height="18" viewBox="0 0 18 18" xmlns="http://www.w3.org/2000/svg"><path fill="#F0F3FA" d="M0 0h18v18H0z"/><path d="M8.3 13H5V5h3.53c1.36.02 2.04.85 2.04 2.07 0 .68-.21 1.12-.86 1.49.82.32 1.29 1.26 1.29 2.02C11 12.1 9.9 13 8.3 13Zm-.21-4H6.5v3h1.56c.79 0 1.44-.53 1.44-1.42 0-1.04-.72-1.57-1.41-1.58ZM9 7.07C9 6.36 8.3 6 7.63 6H6.5v2h1.32C8.45 8 9 7.68 9 7.07Z"/><circle cx="13" cy="9" r="1" fill="#C82038"/></svg>
